X: 2
T: Molly MacAlpin
R: barndance
M: 4/4
L: 1/8
K: Emin
|: EF |"Em" G2 F>E E2 DE | G2 F>E "D"D2 GA | "G,"B2 AB AGFE | "C"E4 E2 AB|
"A,m" c2 cd "G,"B2 Bc | "D"A^GAB "C"e3 d | "Em"edBA "D"AGED | "Em"E6 :|
|: Bc | "G,"dBAB d3 e | "B,m"dBAB d3 B | "Em"edef "D"edBd | "C"e6 ed |
"A,m"c2 cd "G,"B2 Bc | "D"A^GAB "C"e3 d | "Em"edBA "D"AGED | "Em"E6 :|


Tune 2228	Setting 2228

